X:1
T:Carol of the Bells
T:Carol of the Bells
%%score 1 2 3 4
L:1/8
Q:1/4=160
M:3/4
K:Bb
V:1 treble-8 nm="Tenor" snm="T."
V:2 treble-8 nm="Tenor" snm="T."
V:3 bass nm="Baritone" snm="Bar."
V:4 bass nm="Bass" snm="B."
V:1
 z6 | z6 | z6 | z6 | z6 | z6 | z6 | z6 | z6 | z6 | z6 | z6 |!mf!!<(! c2 cc c2!<)! | d2 dd d2 | %14
!f! e2 ee e2 | B2 BB B2 | d6 | =e6 | f2 e2 d2 | gf e2 d2 | d2 dd d2 | d2 cd B2 | e2 ee e2 | %23
 d2 dd d2 | B2 AB G2 | B2 AB G2 | B2 AB G2 | B2 AB G2 | z6 | z6 |!p! F6 | E6 | G6- | G6- | G6- | %35
 G6- :| G6 |] %37
V:2
!mp! B2 AB G2 | B2 AB G2 | B2 AB G2 | B2 AB G2 | B2 AB G2 | B2 AB G2 | B2 AB G2 | B2 AB G2 | %8
 B2 AB G2 | B2 AB G2 | B2 AB G2 | B2 AB G2 |!mf!!<(! B2 AB G2!<)! | B2 AB G2 |!f! B2 AB G2 | %15
 B2 AB G2 | d2 cd B2 | d2 cd B2 | d2 cd B2 | d2 cd B2 | g2 gg fe | d2 dd cB | c2 cc dc | B2 AB G2 | %24
 D=E ^FG AB | cd c2 B2 | D=E ^FG AB | cd c2 B2 |!p! B2 AB G2 | B2 AB G2 | B2 AB G2 | B2 AB G2 | %32
 B2 AB G2 | B2 AB G2 | B2 AB G2 | B2 AB G2- :| G6 |] %37
V:3
 z6 | z6 | z6 | z6 | G,6 | F,6 | E,6 | D,6 | G,6 | F,6 | E,6 | D,6 |!mf!!<(! G,2 G,G, G,2!<)! | %13
 G,2 G,G, G,2 |!f! G,2 G,G, G,2 | G,2 G,G, G,2 | B,2 A,B, G,2 | B,2 A,B, G,2 | B,2 A,B, G,2 | %19
 B,2 A,B, G,2 | D2 DD DC | B,2 B,B, A,G, | G,2 G,G, B,G, | G,2 A,G, D,2 | D,6 | =E,2 ^F,2 G,2 | %26
 D,6 | =E,2 ^F,2 G,2 |!p! G,6 | G,6 | G,6 | G,6 | D,6- | D,6- | D,6- | D,6- :| D,6 |] %37
V:4
 z6 | z6 | z6 | z6 | z6 | z6 | z6 | z6 | E,6 | D,6 | C,6 | G,,6 |!mf!!<(! E,2 E,E, E,2!<)! | %13
 G,2 G,G, G,2 |!f! C2 CC C2 | G,2 G,G, G,2 | G,2 G,G, G,2 | G,2 G,G, G,2 | G,2 G,G, G,2 | %19
 G,2 G,G, G,2 | B,2 A,B, G,2 | B,2 A,B, G,2 | B,2 A,B, G,2 | B,2 A,B, G,2 | D,6- | D,6 | D,6- | %27
 D,6 |!p! F,6 | E,6 | D,6 | C,6 | G,,6- | G,,6- | G,,6- | G,,6- :| G,,6 |] %37

